{ "compressionlevel":-1,
 "height":26,
 "infinite":false,
 "layers":[
        {
         "data":[1, 2, 3, 4, 5, 6, 7, 8, 9, 10, 11, 12, 13, 14, 15, 16, 17, 18, 19, 20, 21, 22, 44, 45, 46,
            47, 48, 49, 50, 51, 52, 53, 54, 55, 56, 57, 58, 59, 60, 61, 62, 63, 64, 65, 66, 67, 68, 90, 91, 92,
            93, 94, 95, 96, 97, 98, 99, 100, 101, 102, 103, 104, 105, 106, 107, 108, 109, 110, 111, 112, 113, 114, 136, 137, 138,
            139, 140, 141, 142, 143, 144, 145, 146, 147, 148, 149, 150, 152, 152, 153, 154, 155, 156, 157, 158, 159, 160, 182, 183, 184,
            185, 186, 187, 188, 189, 190, 191, 192, 193, 194, 195, 196, 198, 198, 199, 200, 201, 202, 203, 204, 205, 206, 228, 229, 230,
            231, 232, 233, 234, 235, 236, 237, 238, 239, 240, 241, 242, 244, 244, 245, 246, 247, 248, 249, 250, 251, 252, 274, 275, 276,
            277, 278, 279, 280, 281, 282, 283, 284, 285, 286, 287, 288, 290, 290, 291, 292, 293, 294, 295, 296, 297, 298, 320, 321, 322,
            323, 324, 325, 326, 327, 328, 329, 330, 331, 332, 333, 334, 336, 336, 337, 338, 339, 340, 341, 342, 343, 344, 366, 367, 368,
            369, 370, 371, 372, 373, 374, 375, 376, 377, 378, 379, 380, 382, 382, 383, 384, 385, 386, 387, 388, 389, 390, 412, 413, 414,
            415, 416, 417, 418, 419, 420, 421, 422, 423, 424, 425, 426, 428, 428, 429, 430, 431, 432, 433, 434, 435, 436, 458, 459, 460,
            461, 462, 463, 464, 465, 466, 467, 468, 469, 470, 471, 472, 474, 474, 475, 476, 477, 478, 479, 480, 481, 482, 504, 505, 506,
            507, 508, 509, 510, 511, 512, 513, 514, 515, 516, 517, 518, 520, 520, 521, 522, 523, 524, 525, 526, 527, 528, 550, 551, 552,
            553, 554, 555, 556, 557, 558, 559, 560, 561, 562, 563, 564, 566, 566, 567, 568, 569, 570, 571, 572, 573, 574, 596, 597, 598,
            599, 600, 601, 602, 603, 604, 605, 606, 607, 608, 609, 610, 612, 612, 613, 614, 615, 616, 617, 618, 619, 620, 642, 643, 644,
            645, 646, 647, 648, 649, 650, 651, 652, 653, 654, 655, 656, 658, 658, 659, 660, 661, 662, 663, 664, 665, 666, 688, 689, 690,
            691, 692, 693, 694, 695, 696, 697, 698, 699, 700, 701, 702, 704, 704, 705, 706, 707, 708, 709, 710, 711, 712, 734, 735, 736,
            737, 738, 739, 740, 741, 742, 743, 744, 745, 746, 747, 748, 750, 750, 751, 752, 753, 754, 755, 756, 757, 758, 780, 781, 782,
            783, 784, 785, 786, 787, 788, 789, 790, 791, 792, 793, 794, 796, 796, 797, 798, 799, 800, 801, 802, 803, 804, 826, 827, 828,
            829, 830, 831, 832, 833, 834, 835, 836, 837, 838, 839, 840, 842, 842, 843, 844, 845, 846, 847, 848, 849, 850, 872, 873, 874,
            875, 876, 877, 878, 879, 880, 881, 882, 883, 884, 885, 886, 888, 888, 889, 890, 891, 892, 893, 894, 895, 896, 918, 919, 920,
            921, 922, 923, 924, 925, 926, 927, 928, 929, 930, 931, 932, 934, 934, 935, 936, 937, 938, 939, 940, 941, 942, 964, 965, 966,
            967, 968, 969, 970, 971, 972, 973, 974, 975, 976, 977, 978, 980, 980, 981, 982, 983, 984, 985, 986, 987, 988, 1010, 1011, 1012,
            1013, 1014, 1015, 1016, 1017, 1018, 1019, 1020, 1021, 1022, 1023, 1024, 1026, 1026, 1027, 1028, 1029, 1030, 1031, 1032, 1033, 1034, 1056, 1057, 1058,
            1059, 1060, 1061, 1062, 1063, 1064, 1065, 1066, 1067, 1068, 1069, 1070, 1072, 1072, 1073, 1074, 1075, 1076, 1077, 1078, 1079, 1080, 1102, 1103, 1104,
            1105, 1106, 1107, 1108, 1109, 1110, 1111, 1112, 1113, 1114, 1115, 1116, 1117, 1118, 1119, 1120, 1121, 1122, 1123, 1124, 1125, 1126, 1148, 1149, 1150,
            1151, 1152, 1153, 1154, 1155, 1156, 1157, 1158, 1159, 1160, 1161, 1162, 1163, 1164, 1165, 1166, 1167, 1168, 1169, 1170, 1171, 1172, 1194, 1195, 1196],
         "height":26,
         "id":1,
         "name":"Capa de patrones 1",
         "opacity":1,
         "type":"tilelayer",
         "visible":true,
         "width":25,
         "x":0,
         "y":0
        }],
 "nextlayerid":2,
 "nextobjectid":1,
 "orientation":"orthogonal",
 "renderorder":"right-down",
 "tiledversion":"1.11.2",
 "tileheight":16,
 "tilesets":[
        {
         "columns":46,
         "firstgid":1,
         "image":"..\/..\/..\/..\/Downloads\/mesa3.png",
         "imageheight":421,
         "imagewidth":744,
         "margin":0,
         "name":"mesa3",
         "spacing":0,
         "tilecount":1196,
         "tileheight":16,
         "tilewidth":16
        }],
 "tilewidth":16,
 "type":"map",
 "version":"1.10",
 "width":25
}