<?xml version="1.0" encoding="UTF-8"?>
<map version="1.10" tiledversion="1.11.2" orientation="orthogonal" renderorder="right-down" width="40" height="40" tilewidth="16" tileheight="16" infinite="0" nextlayerid="4" nextobjectid="1">
 <tileset firstgid="1" name="tileset" tilewidth="16" tileheight="16" tilecount="1230" columns="30">
  <image source="../../../../../../tiled/Tetri Tower Asset/Tileset &amp; Background/tileset.png" width="480" height="656"/>
  <tile id="482">
   <properties>
    <property name="roof" type="bool" value="true"/>
   </properties>
  </tile>
  <tile id="511">
   <properties>
    <property name="roof" type="bool" value="true"/>
   </properties>
  </tile>
  <tile id="513">
   <properties>
    <property name="roof" type="bool" value="true"/>
   </properties>
  </tile>
  <tile id="516">
   <properties>
    <property name="roof" type="bool" value="true"/>
   </properties>
  </tile>
 </tileset>
 <tileset firstgid="1231" name="desert_layer" tilewidth="16" tileheight="16" tilecount="156" columns="12">
  <image source="../../../../../../tiled/Tetri Tower Asset/Tileset &amp; Background/desert_layer.png" width="192" height="216"/>
 </tileset>
 <tileset firstgid="1387" name="sky_background" tilewidth="16" tileheight="16" tilecount="308" columns="14">
  <image source="../../../../../../tiled/Tetri Tower Asset/Tileset &amp; Background/sky_background.png" width="224" height="360"/>
 </tileset>
 <layer id="1" name="back" width="40" height="40">
  <data encoding="csv">
1387,1387,1387,1387,1387,1387,1387,1387,1387,1387,1387,1387,1387,1387,1387,1387,1387,1387,1387,1387,1387,1387,1387,1387,1387,1387,1387,1387,1387,1387,1387,1387,1387,1387,1387,1387,1387,1387,1387,1387,
1387,1387,1387,1387,1387,1387,1387,1387,1387,1387,1387,1387,1387,1387,1387,1387,1387,1387,1387,1387,1387,1387,1387,1387,1387,1387,1387,1387,1387,1387,1387,1387,1387,1387,1387,1387,1387,1387,1387,1387,
1387,1387,1387,1387,1387,1387,1387,1387,1387,1387,1387,1387,1387,1387,1387,1387,1387,1387,1387,1387,1387,1387,1387,1387,1387,1387,1387,1387,1387,1387,1387,1387,1387,1387,1387,1387,1387,1387,1387,1387,
1387,1387,1387,1387,1387,1387,1387,1387,1387,1387,1387,1387,1387,1387,1387,1387,1387,1387,1387,1387,1387,1387,1387,1387,1387,1387,1387,1387,1387,1387,1387,1387,1387,1387,1387,1387,1387,1387,1387,1387,
1387,1387,1387,1387,1387,1387,1387,1387,1387,1387,1387,1387,1387,1387,1387,1387,1387,1387,1387,1387,1387,1387,1387,1387,1387,1387,1387,1387,1387,1387,1387,1387,1387,1387,1387,1387,1387,1387,1387,1387,
1387,1387,1387,1387,1387,1387,1387,1387,1387,1387,1387,1387,1387,1387,1387,1387,1387,1387,1387,1387,1387,1387,1387,1387,1387,1387,1387,1387,1387,1387,1387,1387,1387,1387,1387,1387,1387,1387,1387,1387,
1387,1387,1387,1387,1387,1387,1387,1387,1387,1387,1387,1387,1387,1387,1387,1387,1387,1387,1387,1387,1387,1387,1387,1387,1387,1387,1387,1387,1387,1387,1387,1387,1387,1387,1387,1387,1387,1387,1387,1387,
1387,1387,1387,1387,1387,1387,1387,1387,1387,1387,1387,1387,1387,1387,1387,1387,1387,1387,1387,1387,1387,1387,1387,1387,1387,1387,1387,1387,1387,1387,1387,1387,1387,1387,1387,1387,1387,1387,1387,1387,
1387,1387,1387,1387,1387,1387,1387,1387,1387,1387,1387,1387,1387,1387,1387,1387,1387,1387,1387,1387,1387,1387,1387,1387,1387,1387,1387,1387,1387,1387,1387,1387,1387,1387,1387,1387,1387,1387,1387,1387,
1387,1387,1387,1387,1387,1387,1387,1387,1387,1387,1387,1387,1387,1387,1387,1387,1387,1387,1387,1387,1387,1387,1387,1387,1387,1387,1387,1387,1387,1387,1387,1387,1387,1387,1387,1387,1387,1387,1387,1387,
1387,1387,1387,1387,1387,1387,1387,1387,1387,1387,1387,1387,1387,1387,1387,1387,1387,1387,1387,1387,1387,1387,1387,1387,1387,1387,1387,1387,1387,1387,1387,1387,1387,1387,1387,1387,1387,1387,1387,1387,
1387,1387,1387,1387,1387,1387,1387,1387,1387,1387,1387,1387,1387,1387,1387,1387,1387,1387,1387,1387,1387,1387,1387,1387,1387,1387,1387,1387,1387,1387,1387,1387,1387,1387,1387,1387,1387,1387,1387,1387,
1387,1387,1387,1387,1387,1387,1387,1387,1387,1387,1387,1387,1387,1387,1387,1387,1387,1387,1387,1387,1387,1387,1387,1387,1387,1387,1387,1387,1387,1387,1387,1387,1387,1387,1387,1387,1387,1387,1387,1387,
1387,1387,1387,1387,1387,1387,1387,1387,1387,1387,1387,1387,1387,1387,1387,1387,1387,1387,1387,1387,1387,1387,1387,1387,1387,1387,1387,1387,1387,1387,1387,1387,1387,1387,1387,1387,1387,1387,1387,1387,
1387,1387,1387,1387,1387,1387,1387,1387,1387,1387,1387,1387,1387,1387,1387,1387,1387,1387,1387,1387,1387,1387,1387,1387,1387,1387,1387,1387,1387,1387,1387,1387,1387,1387,1387,1387,1387,1387,1387,1387,
1387,1387,1387,1387,1387,1387,1387,1387,1387,1387,1387,1387,1387,1387,1387,1387,1387,1387,1387,1387,1387,1387,1387,1387,1387,1387,1387,1387,1387,1387,1387,1387,1387,1387,1387,1387,1387,1387,1387,1387,
1387,1387,1387,1387,1387,1387,1387,1387,1387,1387,1387,1387,1387,1387,1387,1387,1387,1387,1387,1387,1387,1387,1387,1387,1387,1387,1387,1387,1387,1387,1387,1387,1387,1387,1387,1387,1387,1387,1387,1387,
1387,1387,1387,1387,1387,1387,1387,1387,1387,1387,1387,1387,1387,1387,1387,1387,1387,1387,1387,1387,1387,1387,1387,1387,1387,1387,1387,1387,1387,1387,1387,1387,1387,1387,1387,1387,1387,1387,1387,1387,
1387,1388,1389,1390,1391,1392,1393,1394,1395,1396,1397,1398,1399,1400,1387,1388,1389,1390,1391,1392,1393,1394,1395,1396,1397,1398,1399,1400,1387,1388,1389,1390,1391,1392,1393,1394,1395,1396,1397,1398,
1401,1402,1403,1404,1405,1406,1407,1408,1409,1410,1411,1412,1413,1414,1401,1402,1403,1404,1405,1406,1407,1408,1409,1410,1411,1412,1413,1414,1401,1402,1403,1404,1405,1406,1407,1408,1409,1410,1411,1412,
1415,1416,1417,1418,1419,1420,1421,1422,1423,1424,1425,1426,1427,1428,1415,1416,1417,1418,1419,1420,1421,1422,1423,1424,1425,1426,1427,1428,1415,1416,1417,1418,1419,1420,1421,1422,1423,1424,1425,1426,
1429,1430,1431,1432,1433,1434,1435,1436,1437,1438,1439,1440,1441,1442,1429,1430,1431,1432,1433,1434,1435,1436,1437,1438,1439,1440,1441,1442,1429,1430,1431,1432,1433,1434,1435,1436,1437,1438,1439,1440,
1443,1444,1445,1446,1447,1448,1449,1450,1451,1452,1453,1454,1455,1456,1443,1444,1445,1446,1447,1448,1449,1450,1451,1452,1453,1454,1455,1456,1443,1444,1445,1446,1447,1448,1449,1450,1451,1452,1453,1454,
1457,1458,1459,1460,1461,1462,1463,1464,1465,1466,1467,1468,1469,1470,1457,1458,1459,1460,1461,1462,1463,1464,1465,1466,1467,1468,1469,1470,1457,1458,1459,1460,1461,1462,1463,1464,1465,1466,1467,1468,
1471,1472,1473,1474,1475,1476,1477,1478,1479,1480,1481,1482,1483,1484,1471,1472,1473,1474,1475,1476,1477,1478,1479,1480,1481,1482,1483,1484,1471,1472,1473,1474,1475,1476,1477,1478,1479,1480,1481,1482,
1485,1486,1487,1488,1489,1490,1491,1492,1493,1494,1495,1496,1497,1498,1485,1486,1487,1488,1489,1490,1491,1492,1493,1494,1495,1496,1497,1498,1485,1486,1487,1488,1489,1490,1491,1492,1493,1494,1495,1496,
1499,1500,1501,1502,1503,1504,1505,1506,1507,1508,1509,1510,1511,1512,1499,1500,1501,1502,1503,1504,1505,1506,1507,1508,1509,1510,1511,1512,1499,1500,1501,1502,1503,1504,1505,1506,1507,1508,1509,1510,
1513,1514,1515,1516,1517,1518,1519,1520,1521,1522,1523,1524,1525,1526,1513,1514,1515,1516,1517,1518,1519,1520,1521,1522,1523,1524,1525,1526,1513,1514,1515,1516,1517,1518,1519,1520,1521,1522,1523,1524,
1527,1528,1529,1530,1531,1532,1533,1534,1535,1536,1537,1538,1539,1540,1527,1528,1529,1530,1531,1532,1533,1534,1535,1536,1537,1538,1539,1540,1527,1528,1529,1530,1531,1532,1533,1534,1535,1536,1537,1538,
1541,1542,1543,1544,1545,1546,1547,1548,1549,1550,1551,1552,1553,1554,1541,1542,1543,1544,1545,1546,1547,1548,1549,1550,1551,1552,1553,1554,1541,1542,1543,1544,1545,1546,1547,1548,1549,1550,1551,1552,
1555,1556,1557,1558,1559,1560,1561,1562,1563,1564,1565,1566,1567,1568,1555,1556,1557,1558,1559,1560,1561,1562,1563,1564,1565,1566,1567,1568,1555,1556,1557,1558,1559,1560,1561,1562,1563,1564,1565,1566,
1569,1570,1571,1572,1573,1574,1575,1576,1577,1578,1579,1580,1581,1582,1569,1570,1571,1572,1573,1574,1575,1576,1577,1578,1579,1580,1581,1582,1569,1570,1571,1572,1573,1574,1575,1576,1577,1578,1579,1580,
1583,1584,1585,1586,1587,1588,1589,1590,1591,1592,1593,1594,1595,1596,1583,1584,1585,1586,1587,1588,1589,1590,1591,1592,1593,1594,1595,1596,1583,1584,1585,1586,1587,1588,1589,1590,1591,1592,1593,1594,
1597,1598,1599,1600,1601,1602,1603,1604,1605,1606,1607,1608,1609,1610,1597,1598,1599,1600,1601,1602,1603,1604,1605,1606,1607,1608,1609,1610,1597,1598,1599,1600,1601,1602,1603,1604,1605,1606,1607,1608,
1611,1612,1613,1614,1615,1616,1617,1618,1619,1620,1621,1622,1623,1624,1611,1612,1613,1614,1615,1616,1617,1618,1619,1620,1621,1622,1623,1624,1611,1612,1613,1614,1615,1616,1617,1618,1619,1620,1621,1622,
1625,1626,1627,1628,1629,1630,1631,1632,1633,1634,1635,1636,1637,1638,1625,1626,1627,1628,1629,1630,1631,1632,1633,1634,1635,1636,1637,1638,1625,1626,1627,1628,1629,1630,1631,1632,1633,1634,1635,1636,
1639,1640,1641,1642,1643,1644,1645,1646,1647,1648,1649,1650,1651,1652,1639,1640,1641,1642,1643,1644,1645,1646,1647,1648,1649,1650,1651,1652,1639,1640,1641,1642,1643,1644,1645,1646,1647,1648,1649,1650,
1653,1654,1655,1656,1657,1658,1659,1660,1661,1662,1663,1664,1665,1666,1653,1654,1655,1656,1657,1658,1659,1660,1661,1662,1663,1664,1665,1666,1653,1654,1655,1656,1657,1658,1659,1660,1661,1662,1663,1664,
1667,1668,1669,1670,1671,1672,1673,1674,1675,1676,1677,1678,1679,1680,1667,1668,1669,1670,1671,1672,1673,1674,1675,1676,1677,1678,1679,1680,1667,1668,1669,1670,1671,1672,1673,1674,1675,1676,1677,1678,
1681,1682,1683,1684,1685,1686,1687,1688,1689,1690,1691,1692,1693,1694,1681,1682,1683,1684,1685,1686,1687,1688,1689,1690,1691,1692,1693,1694,1681,1682,1683,1684,1685,1686,1687,1688,1689,1690,1691,1692
</data>
 </layer>
 <layer id="2" name="desert" width="40" height="40">
  <data encoding="csv">
0,0,0,0,0,0,0,0,0,0,0,0,0,0,0,0,0,0,0,0,0,0,0,0,0,0,0,0,0,0,0,0,0,0,0,0,0,0,0,0,
0,0,0,0,0,0,0,0,0,0,0,0,0,0,0,0,0,0,0,0,0,0,0,0,0,0,0,0,0,0,0,0,0,0,0,0,0,0,0,0,
0,0,0,0,0,0,0,0,0,0,0,0,0,0,0,0,0,0,0,0,0,0,0,0,0,0,0,0,0,0,0,0,0,0,0,0,0,0,0,0,
0,0,0,0,0,0,0,0,0,0,0,0,0,0,0,0,0,0,0,0,0,0,0,0,0,0,0,0,0,0,0,0,0,0,0,0,0,0,0,0,
0,0,0,0,0,0,0,0,0,0,0,0,0,0,0,0,0,0,0,0,0,0,0,0,0,0,0,0,0,0,0,0,0,0,0,0,0,0,0,0,
0,0,0,0,0,0,0,0,0,0,0,0,0,0,0,0,0,0,0,0,0,0,0,0,0,0,0,0,0,0,0,0,0,0,0,0,0,0,0,0,
0,0,0,0,0,0,0,0,0,0,0,0,0,0,0,0,0,0,0,0,0,0,0,0,0,0,0,0,0,0,0,0,0,0,0,0,0,0,0,0,
0,0,0,0,0,0,0,0,0,0,0,0,0,0,0,0,0,0,0,0,0,0,0,0,0,0,0,0,0,0,0,0,0,0,0,0,0,0,0,0,
0,0,0,0,0,0,0,0,0,0,0,0,0,0,0,0,0,0,0,0,0,0,0,0,0,0,0,0,0,0,0,0,0,0,0,0,0,0,0,0,
0,0,0,0,0,0,0,0,0,0,0,0,0,0,0,0,0,0,0,0,0,0,0,0,0,0,0,0,0,0,0,0,0,0,0,0,0,0,0,0,
0,0,0,0,0,0,0,0,0,0,0,0,0,0,0,0,0,0,0,0,0,0,0,0,0,0,0,0,0,0,0,0,0,0,0,0,0,0,0,0,
0,0,0,0,0,0,0,0,0,0,0,0,0,0,0,0,0,0,0,0,0,0,0,0,0,0,0,0,0,0,0,0,0,0,0,0,0,0,0,0,
0,0,0,0,0,0,0,0,0,0,0,0,0,0,0,0,0,0,0,0,0,0,0,0,0,0,0,0,0,0,0,0,0,0,0,0,0,0,0,0,
0,0,0,0,0,0,0,0,0,0,0,0,0,0,0,0,0,0,0,0,0,0,0,0,0,0,0,0,0,0,0,0,0,0,0,0,0,0,0,0,
0,0,0,0,0,0,0,0,0,0,0,0,0,0,0,0,0,0,0,0,0,0,0,0,0,0,0,0,0,0,0,0,0,0,0,0,0,0,0,0,
0,0,0,0,0,0,0,0,0,0,0,0,0,0,0,0,0,0,0,0,0,0,0,0,0,0,0,0,0,0,0,0,0,0,0,0,0,0,0,0,
0,0,0,0,0,0,0,0,0,0,0,0,0,0,0,0,0,0,0,0,0,0,0,0,0,0,0,0,0,0,0,0,0,0,0,0,0,0,0,0,
0,0,0,0,0,0,0,0,0,0,0,0,0,0,0,0,0,0,0,0,0,0,0,0,0,0,0,0,0,0,0,0,0,0,0,0,0,0,0,0,
0,0,0,0,0,0,0,0,0,0,0,0,0,0,0,0,0,0,0,0,0,0,0,0,0,0,0,0,0,0,0,0,0,0,0,0,0,0,0,0,
0,0,0,0,0,0,0,0,0,0,0,0,0,0,0,0,0,0,0,0,0,0,0,0,0,0,0,0,0,0,0,0,0,0,0,0,0,0,0,0,
0,0,0,0,0,0,0,0,0,0,0,0,0,0,0,0,0,0,0,0,0,0,0,0,0,0,0,0,0,0,0,0,0,0,0,0,0,0,0,0,
0,0,0,0,0,0,0,0,0,0,0,0,0,0,0,0,0,0,0,0,0,0,0,0,0,0,0,0,0,0,0,0,0,0,0,0,0,0,0,0,
0,0,0,0,0,0,0,0,0,0,0,0,0,0,0,0,0,0,0,0,0,0,0,0,0,0,0,0,0,0,0,0,0,0,0,0,0,0,0,0,
0,0,0,0,0,0,0,0,0,0,0,0,0,0,0,0,0,0,0,0,0,0,0,0,0,0,0,0,0,0,0,0,0,0,0,0,0,0,0,0,
0,0,0,0,0,0,0,0,0,0,0,0,0,0,0,0,0,0,0,0,0,0,0,0,0,0,0,0,0,0,0,0,0,0,0,0,0,0,0,0,
0,0,0,0,0,0,0,0,0,0,0,0,0,0,0,0,0,0,0,0,0,0,0,0,0,0,0,0,0,0,0,0,0,0,0,0,0,0,0,0,
0,0,0,0,0,0,0,0,0,0,0,0,0,0,0,0,0,0,0,0,0,0,0,0,0,0,0,0,0,0,0,0,0,0,0,0,0,0,0,0,
1231,1232,1233,1234,1235,1236,1237,1238,1239,1240,1241,1242,1231,1232,1233,1234,1235,1236,1237,1238,1239,1240,1241,1242,1231,1232,1233,1234,1235,1236,1237,1238,1239,1240,1241,1242,1231,1232,1233,1234,
1243,1244,1245,1246,1247,1248,1249,1250,1251,1252,1253,1254,1243,1244,1245,1246,1247,1248,1249,1250,1251,1252,1253,1254,1243,1244,1245,1246,1247,1248,1249,1250,1251,1252,1253,1254,1243,1244,1245,1246,
1255,1256,1257,1258,1259,1260,1261,1262,1263,1264,1265,1266,1255,1256,1257,1258,1259,1260,1261,1262,1263,1264,1265,1266,1255,1256,1257,1258,1259,1260,1261,1262,1263,1264,1265,1266,1255,1256,1257,1258,
1267,1268,1269,1270,1271,1272,1273,1274,1275,1276,1277,1278,1267,1268,1269,1270,1271,1272,1273,1274,1275,1276,1277,1278,1267,1268,1269,1270,1271,1272,1273,1274,1275,1276,1277,1278,1267,1268,1269,1270,
1279,1280,1281,1282,1283,1284,1285,1286,1287,1288,1289,1290,1279,1280,1281,1282,1283,1284,1285,1286,1287,1288,1289,1290,1279,1280,1281,1282,1283,1284,1285,1286,1287,1288,1289,1290,1279,1280,1281,1282,
1291,1292,1293,1294,1295,1296,1297,1298,1299,1300,1301,1302,1291,1292,1293,1294,1295,1296,1297,1298,1299,1300,1301,1302,1291,1292,1293,1294,1295,1296,1297,1298,1299,1300,1301,1302,1291,1292,1293,1294,
1303,1304,1305,1306,1307,1308,1309,1310,1311,1312,1313,1314,1303,1304,1305,1306,1307,1308,1309,1310,1311,1312,1313,1314,1303,1304,1305,1306,1307,1308,1309,1310,1311,1312,1313,1314,1303,1304,1305,1306,
1315,1316,1317,1318,1319,1320,1321,1322,1323,1324,1325,1326,1315,1316,1317,1318,1319,1320,1321,1322,1323,1324,1325,1326,1315,1316,1317,1318,1319,1320,1321,1322,1323,1324,1325,1326,1315,1316,1317,1318,
1327,1328,1329,1330,1331,1332,1333,1334,1335,1336,1337,1338,1327,1328,1329,1330,1331,1332,1333,1334,1335,1336,1337,1338,1327,1328,1329,1330,1331,1332,1333,1334,1335,1336,1337,1338,1327,1328,1329,1330,
1339,1340,1341,1342,1343,1344,1345,1346,1347,1348,1349,1350,1339,1340,1341,1342,1343,1344,1345,1346,1347,1348,1349,1350,1339,1340,1341,1342,1343,1344,1345,1346,1347,1348,1349,1350,1339,1340,1341,1342,
1351,1352,1353,1354,1355,1356,1357,1358,1359,1360,1361,1362,1351,1352,1353,1354,1355,1356,1357,1358,1359,1360,1361,1362,1351,1352,1353,1354,1355,1356,1357,1358,1359,1360,1361,1362,1351,1352,1353,1354,
1363,1364,1365,1366,1367,1368,1369,1370,1371,1372,1373,1374,1363,1364,1365,1366,1367,1368,1369,1370,1371,1372,1373,1374,1363,1364,1365,1366,1367,1368,1369,1370,1371,1372,1373,1374,1363,1364,1365,1366,
1375,1376,1377,1378,1379,1380,1381,1382,1383,1384,1385,1386,1375,1376,1377,1378,1379,1380,1381,1382,1383,1384,1385,1386,1375,1376,1377,1378,1379,1380,1381,1382,1383,1384,1385,1386,1375,1376,1377,1378
</data>
 </layer>
 <layer id="3" name="house" width="40" height="40">
  <data encoding="csv">
0,0,0,0,0,0,0,0,0,0,0,0,0,0,0,0,0,0,0,0,0,0,0,0,0,0,0,0,0,0,0,0,0,0,0,0,0,0,0,0,
0,0,0,0,0,0,0,0,0,0,0,0,0,0,0,0,0,0,0,0,0,0,0,0,0,0,0,0,0,0,0,0,0,0,0,0,0,0,0,0,
0,0,0,0,0,0,0,0,0,0,0,0,0,0,0,0,0,0,0,0,0,0,0,0,0,0,0,0,0,0,0,0,0,0,0,0,0,0,0,0,
0,0,0,0,0,0,0,0,0,0,0,0,0,0,0,0,0,0,0,0,0,0,0,0,0,0,0,0,0,0,0,0,0,0,0,0,0,0,0,0,
0,0,0,0,0,0,0,0,0,0,0,0,0,0,0,0,0,0,0,0,0,0,0,0,0,0,0,0,0,0,0,0,0,0,0,0,0,0,0,0,
0,0,0,0,0,0,0,0,0,0,0,0,0,0,0,0,0,0,0,0,0,0,0,0,0,0,0,0,0,0,0,0,0,0,0,0,0,0,0,0,
0,0,0,0,0,0,0,0,0,0,0,0,0,0,0,0,0,0,0,0,0,0,0,0,0,0,0,0,0,0,0,0,0,0,0,0,0,0,0,0,
0,0,0,0,0,0,0,0,0,0,0,0,0,0,0,0,0,0,0,0,0,0,0,0,0,0,0,0,0,0,0,0,0,0,0,0,0,0,0,0,
0,0,0,0,0,0,0,0,0,0,0,0,0,0,0,0,0,0,0,0,0,0,0,0,0,0,0,0,0,0,0,0,0,0,0,0,0,0,0,0,
0,0,0,0,0,0,0,0,0,0,0,0,0,0,0,0,0,0,0,0,0,0,0,0,0,0,0,0,0,0,0,0,0,0,0,0,0,0,0,0,
0,0,0,0,0,0,0,0,0,0,0,0,0,0,0,0,0,0,0,0,0,0,0,0,0,0,0,0,0,0,0,0,0,0,0,0,0,0,0,0,
0,0,0,0,0,0,0,0,0,0,0,0,0,0,0,0,0,0,0,0,0,0,0,0,0,0,0,0,0,0,0,0,0,0,0,0,0,0,0,0,
0,0,0,0,0,0,0,0,0,0,0,0,0,0,0,0,0,0,0,0,0,0,0,0,0,0,0,0,0,0,0,0,0,0,0,0,0,0,0,0,
0,0,0,0,0,0,0,0,0,0,0,0,0,0,0,0,0,0,0,0,0,0,0,0,0,0,0,0,0,0,0,0,0,0,0,0,0,0,0,0,
0,0,0,0,0,0,0,0,0,0,0,0,0,0,0,0,0,0,0,0,0,0,0,0,0,0,0,0,0,0,0,0,0,0,0,0,0,0,0,0,
0,0,0,0,0,0,0,0,0,0,0,0,0,0,0,0,0,0,0,0,0,0,0,0,0,0,0,0,0,0,0,0,0,0,0,0,0,0,0,0,
0,0,0,0,0,0,0,0,0,0,0,0,0,0,0,0,0,0,0,0,0,0,0,0,0,0,0,0,0,0,0,0,0,0,0,0,0,0,0,0,
0,0,0,0,0,0,0,0,0,0,0,0,0,0,0,0,0,0,0,0,0,0,0,0,0,0,0,0,0,0,0,0,0,0,0,0,0,0,0,0,
0,0,0,0,0,0,0,0,0,0,0,0,0,0,0,0,0,0,0,0,0,0,0,0,0,0,0,0,0,0,0,0,0,0,0,0,0,0,0,0,
0,0,0,0,0,0,0,0,0,0,0,0,0,0,0,0,0,0,0,0,0,0,0,0,0,0,0,0,0,0,0,0,0,0,0,0,0,0,0,0,
0,0,0,0,0,0,0,0,0,0,0,0,0,0,0,0,0,0,0,0,0,0,0,0,0,0,0,0,0,0,0,0,0,0,0,0,0,0,0,0,
0,0,0,0,0,0,0,0,0,0,0,0,0,0,0,0,0,0,0,0,0,0,0,0,0,0,0,0,0,0,0,0,0,0,0,0,0,0,0,0,
0,0,0,0,0,0,0,0,0,0,0,0,0,0,0,0,0,0,0,0,0,0,0,0,0,0,0,0,0,0,0,0,0,0,0,0,0,0,0,0,
0,0,0,0,0,0,0,0,0,0,0,0,0,0,0,0,0,0,0,0,0,0,0,0,0,0,0,0,0,0,0,0,0,0,0,0,0,0,0,0,
0,0,0,0,0,0,0,0,0,0,0,0,0,0,0,0,0,0,0,0,0,0,0,0,0,0,0,0,0,0,0,0,0,0,0,0,0,0,0,0,
0,0,0,0,0,0,0,0,0,0,0,0,0,0,0,0,0,0,0,0,0,0,0,0,0,0,0,0,0,0,0,0,0,0,0,0,0,0,0,0,
0,0,0,0,0,0,0,0,0,0,0,0,0,0,0,0,0,0,0,0,0,0,0,0,0,0,0,0,0,0,0,0,0,0,0,0,0,0,0,0,
0,0,0,0,0,0,0,0,0,0,0,0,0,0,0,0,0,0,0,0,0,0,0,0,0,0,0,0,0,0,0,0,0,0,0,0,0,0,0,0,
0,0,0,0,0,0,0,0,0,0,0,0,0,0,0,0,0,0,0,0,0,0,0,0,0,0,0,0,0,0,0,0,0,0,0,0,0,0,0,0,
0,0,0,0,0,0,0,0,0,0,0,0,0,0,0,0,0,0,0,0,0,0,0,0,0,0,0,0,0,0,0,0,0,0,0,0,0,0,0,0,
0,0,0,0,0,0,0,0,0,0,0,0,0,0,0,0,0,0,0,0,0,0,0,0,0,0,0,0,0,0,0,0,0,0,0,0,0,0,0,0,
0,0,0,0,0,0,0,0,0,0,0,0,0,0,0,0,0,0,0,0,0,0,0,0,0,0,0,0,0,0,0,0,0,0,0,0,0,0,0,0,
0,0,0,0,0,0,0,0,0,0,0,0,0,0,0,0,0,0,0,0,0,0,0,0,0,0,0,0,0,0,0,0,0,0,0,0,0,0,0,0,
0,0,0,0,0,0,0,0,0,0,0,0,0,0,0,0,0,0,0,0,0,0,0,0,0,0,0,0,0,0,0,0,0,0,0,0,0,0,0,0,
0,0,0,0,0,0,0,0,0,0,0,0,0,0,0,0,0,482,483,484,0,0,0,0,0,0,0,0,0,0,0,0,0,0,0,0,0,0,0,0,
0,0,0,0,0,0,0,0,0,0,0,0,0,0,0,0,0,512,513,514,514,514,517,0,0,0,0,0,0,0,0,0,0,0,0,0,0,0,0,0,
0,0,0,0,0,0,0,0,0,0,0,0,0,0,0,0,0,542,543,544,545,546,547,0,0,0,0,0,0,0,0,0,0,0,0,0,0,0,0,0,
0,0,0,0,0,0,0,0,0,0,0,0,0,0,0,0,0,572,573,574,573,574,577,0,0,0,0,0,0,0,0,0,0,0,0,0,0,0,0,0,
0,0,0,0,0,0,0,0,0,0,0,0,0,0,0,0,0,602,603,604,605,606,607,0,0,0,0,0,0,0,0,0,0,0,0,0,0,0,0,0,
0,0,0,0,0,0,0,0,0,0,0,0,0,0,0,0,0,632,574,573,574,573,637,0,0,0,0,0,0,0,0,0,0,0,0,0,0,0,0,0
</data>
 </layer>
</map>
